X:35
T:UPA
M:4/4
L:1/8
Q:1/4=140
K:Cmaj
A2 A2 c3 A | B c B A ^G2 E2 | A3 B c2 B2 | A6 z2 |
A2 A2 d3 A | c B A ^G A2 E2 | A3 B c2 B2 | (A2 G2) |
|: c2 e2 g3 ^f | g a g f e d | e f (e d) (c B) | A2 c2 e3 ^d |
e f e d c B |1 A c e2 d2 | c B (A2 G2) |2 e2 d2 c B | A4 z2 :| 

